X: 75
M:4/4
L:1/8
Q:210
K:F
|:A2 ^c2 d2 e2|f4 e2 f2 |g4 e2 g2|f2 d2 e2 ^c2|A2 ^c2 d2 e2 |f4 f2 g2| a2 g2 f2 g2 |e4 d4:|

